X:312
T:Palm Sunday
R:jig
D:Kevin Burke & Jackie Daly: Eavesdropper
Z:id:hn-jig-312
M:6/8
K:Ador
B|:AGE G2E|G2E G2E|A2B c2d|e2d efg|
~e3 dBA|BAG Bcd|edc BAG|B2A A2B:|
|:~a3 efg|aga bge|gfg gfe|dBA GBd|
efg ded|BAG Bcd|edc BAG|B2A A2B:|

